src/components/Icon/icons/streaming.svg

<svg xmlns="http://www.w3.org/2000/svg" width="24" height="24" viewBox="0 0 24 24">
  <path fill-rule="evenodd" d="M21.3758658,19.4902477 L19.2369557,17.3513376 C20.3448237,15.8555727 21,14.0042987 21,12 C21,9.98563164 20.3382239,8.12582936 19.2202235,6.6261449 L21.3583994,4.48796902 C23.0110709,6.54421136 24,9.15661729 24,12 C24,14.8333516 23.0180362,17.4373533 21.3758658,19.4902477 Z M19.4902477,21.3758658 C17.4373533,23.0180362 14.8333516,24 12,24 C9.15661729,24 6.54421136,23.0110709 4.48796902,21.3583994 L6.6261449,19.2202235 C8.12582936,20.3382239 9.98563164,21 12,21 C14.0042987,21 15.8555727,20.3448237 17.3513376,19.2369557 L19.4902477,21.3758658 Z M4.50975225,2.62413417 C6.5626467,0.981963821 9.16664838,0 12,0 C14.8233184,0 17.4189084,0.975021666 19.4684185,2.60671374 L17.3287579,4.74637437 C15.8369601,3.64860705 13.9942252,3 12,3 C9.99570134,3 8.1444273,3.65517625 6.64866235,4.76304427 L4.50975225,2.62413417 Z M2.62413417,4.50975225 L4.76304427,6.64866235 C3.65517625,8.1444273 3,9.99570134 3,12 C3,13.9942252 3.64860705,15.8369601 4.74637437,17.3287579 L2.60671374,19.4684185 C0.975021666,17.4189084 0,14.8233184 0,12 C0,9.16664838 0.981963821,6.5626467 2.62413417,4.50975225 Z M16.3995482,12.5873964 C16.3995482,12.5873964 15.3040958,13.6852413 13.3553146,14.9073422 C11.4065335,16.1294431 10.0914724,16.5841725 10.0914724,16.5841725 C9.50853688,16.8292367 8.96774352,16.5088159 8.88912533,15.8809345 C8.88912533,15.8809345 8.66666667,14.6262092 8.66666667,11.9968157 C8.66666667,9.36742209 8.89017025,8.08855172 8.89017025,8.08855172 C8.96307237,7.46081322 9.49775158,7.16612179 10.0729315,7.43008618 C10.0729315,7.43008618 11.2906258,7.91998754 13.3553146,9.21477502 C15.4200035,10.5095625 16.3780663,11.4069732 16.3780663,11.4069732 C16.7556959,11.7229534 16.762605,12.2546881 16.3995482,12.5873964 Z"/>
</svg>

<svg xmlns="http://www.w3.org/2000/svg" width="24" height="24" viewBox="0 0 24 24"><path fill-rule="evenodd" d="M21.376 19.49l-2.139-2.139A8.96 8.96 0 0021 12a8.96 8.96 0 00-1.78-5.374l2.138-2.138A11.95 11.95 0 0124 12a11.95 11.95 0 01-2.624 7.49zm-1.886 1.886A11.95 11.95 0 0112 24a11.95 11.95 0 01-7.512-2.642l2.138-2.138A8.96 8.96 0 0012 21a8.96 8.96 0 005.351-1.763l2.14 2.139zM4.51 2.624A11.95 11.95 0 0112 0c2.823 0 5.419.975 7.468 2.607l-2.14 2.14A8.96 8.96 0 0012 3a8.96 8.96 0 00-5.351 1.763l-2.14-2.139zM2.624 4.51l2.139 2.139A8.96 8.96 0 003 12a8.96 8.96 0 001.746 5.329l-2.14 2.14A11.95 11.95 0 010 12c0-2.833.982-5.437 2.624-7.49zM16.4 12.587s-1.096 1.098-3.045 2.32c-1.948 1.222-3.264 1.677-3.264 1.677-.582.245-1.123-.075-1.202-.703 0 0-.222-1.255-.222-3.884 0-2.63.223-3.908.223-3.908.073-.628.608-.923 1.183-.659 0 0 1.218.49 3.282 1.785 2.065 1.295 3.023 2.192 3.023 2.192a.766.766 0 01.022 1.18z"/></svg>
